X:1
T:Bog Road Reel
C:Tony Koop / Heifer Zephyr (2025)
S:MIT License
M:4/4
L:1/8
Q:1/4=120
K:A
H:32-bar reel. A major, D Irish flute. Range A4-A5 (a-a' in ABC, played at A5-A6 pitch).
H:AABB form. Slight swing on 8th notes is idiomatic to Irish reel style.
A2 cA eAcA | d2 fd AdFA | G2 BG dGBG | E2 GE cEGE |
A2 cA eAcA | d2 fd c2 Bc | d2 ed cBAG | A8 :|
|: a2 ea a2 ea | b2 fb b2 fb | a2 ea a2 ea | gfed e2 e2 |
a2 ea a2 ea | b2 fb c'2 bc' | d'2 c'B a2 ge | a8 :|
